X: 37980
T: Sparrowhouse, The
R: jig
M: 6/8
K: Dmajor
|:A|dcd AFD|GBA FED|FBB dBB|edc dBA|
dcd AFD|GBA FED|FBB dBB|edc d2:|
|:f|a^ga fdA|gec Adf|a^ga fdA|cd^d efg|
a^ga fdA|gec Adf|FBB dBB|edc d2:|

